packages/core/src/svgs/tokens/mono/BREED.svg

<svg width="24" height="24" viewBox="0 0 24 24" fill="none" xmlns="http://www.w3.org/2000/svg">
<path d="M15.6243 6.54562H11.0908L9.87874 5.3335H15.6243C19.1394 5.3335 22 8.51533 22 12.0002C22 15.4851 19.1455 18.6669 15.6243 18.6669H9.57568L11.0908 17.4547H15.6243C18.3939 17.4547 20.7879 14.7396 20.7879 12.0002C20.7879 9.26073 18.3939 6.54562 15.6243 6.54562Z" fill="white"/>
<path d="M15.4911 9.57566H12.9093V8.36353H15.4911C15.9583 8.37376 16.4189 8.47595 16.8466 8.66426C17.2744 8.85257 17.6608 9.12329 17.9838 9.46098C18.307 9.79868 18.5602 10.1968 18.7295 10.6323C18.8987 11.068 18.9804 11.5327 18.9699 11.9999C18.9699 14.0061 17.4122 15.6363 15.4911 15.6363H12.9093V14.4242H15.4911C16.7275 14.4242 17.7577 13.2908 17.7577 11.9999C17.7577 10.709 16.7275 9.57566 15.4911 9.57566Z" fill="white"/>
<path d="M3.19394 6.00595C3.19394 5.63625 2.97576 5.33323 2.60606 5.33323C2.24241 5.33323 2 5.63625 2 6.00595V16.309C2 17.7273 3.14546 18.6667 4.55152 18.6667H10.1697C10.9154 18.5972 11.6226 18.3031 12.1973 17.823C12.7722 17.3429 13.1877 16.6995 13.3888 15.978C13.5898 15.2566 13.5669 14.491 13.3233 13.7828C13.0796 13.0746 12.6267 12.4571 12.0242 12.0121C12.4988 11.6618 12.8821 11.2027 13.1416 10.6731C13.4011 10.1435 13.5292 9.55913 13.5152 8.96961C13.5152 7.15141 12.2424 5.56352 10.4545 5.33323H6.60608C6.32354 5.32921 6.04295 5.38091 5.78039 5.48535C5.51782 5.58978 5.27839 5.74491 5.07579 5.9419C4.87318 6.13888 4.71136 6.37384 4.59956 6.63337C4.48777 6.89289 4.42821 7.17189 4.42425 7.45445C4.42425 8.64234 5.26062 9.57567 6.44244 9.57567H9.81817C10.1819 9.57567 10.4849 9.33937 10.4849 8.96961C10.4849 8.54537 10.1819 8.36354 9.81817 8.36354H6.44244C6.00002 8.36354 5.63637 7.90293 5.63637 7.45445C5.63637 7.00595 6.1576 6.54535 6.60608 6.54535H10.4849C11.6061 6.72111 12.3031 7.83627 12.3031 8.96961C12.3031 10.206 11.2243 11.2363 10.0607 11.3938H6.56366C6.28192 11.3947 6.00307 11.451 5.74308 11.5594C5.48309 11.668 5.24701 11.8267 5.04835 12.0265C4.84969 12.2264 4.69233 12.4632 4.58525 12.7239C4.47816 12.9845 4.42346 13.2636 4.42425 13.5453C4.425 13.8239 4.48121 14.0994 4.58959 14.3559C4.69797 14.6125 4.85637 14.8448 5.05552 15.0394C5.25468 15.2341 5.49062 15.3871 5.74955 15.4896C6.00849 15.592 6.28524 15.642 6.56366 15.6363H9.81817C10.1819 15.6363 10.4849 15.3939 10.4849 15.0302C10.4849 14.6545 10.1819 14.4242 9.81817 14.4242H6.44244C6.00002 14.4242 5.63637 13.9636 5.63637 13.5151C5.63637 13.0666 6.00002 12.6061 6.44244 12.6061C7.53335 12.6061 9.00616 12.6181 10.1031 12.6061H10.3273C11.4485 12.7817 12.3031 13.8969 12.3031 15.0302C12.3031 16.2666 11.2243 17.2969 10.0607 17.4545H4.41213C3.74546 17.4545 3.2 16.909 3.2 16.2302V5.9999L3.19394 6.00595Z" fill="white"/>
<path d="M15.3332 12.0001C15.3332 12.1608 15.2694 12.3151 15.1557 12.4286C15.042 12.5423 14.8878 12.6063 14.7272 12.6063C14.5664 12.6063 14.4123 12.5423 14.2986 12.4286C14.1849 12.3151 14.1211 12.1608 14.1211 12.0001C14.1211 11.8394 14.1849 11.6852 14.2986 11.5715C14.4123 11.458 14.5664 11.394 14.7272 11.394C14.8878 11.394 15.042 11.458 15.1557 11.5715C15.2694 11.6852 15.3332 11.8394 15.3332 12.0001Z" fill="white"/>
</svg>

<svg xmlns="http://www.w3.org/2000/svg" width="24" height="24" fill="none" viewBox="0 0 24 24">
    <path fill="#fff" d="M15.624 6.546h-4.533L9.879 5.333h5.745C19.14 5.334 22 8.516 22 12s-2.855 6.667-6.376 6.667H9.576l1.515-1.212h4.533c2.77 0 5.164-2.715 5.164-5.455s-2.394-5.454-5.164-5.454"/>
    <path fill="#fff" d="M15.491 9.576H12.91V8.364h2.582A3.557 3.557 0 0 1 18.97 12c0 2.006-1.558 3.636-3.479 3.636H12.91v-1.212h2.582c1.236 0 2.267-1.133 2.267-2.424s-1.03-2.424-2.267-2.424"/>
    <path fill="#fff" d="M3.194 6.006c0-.37-.218-.673-.588-.673-.364 0-.606.303-.606.673v10.303c0 1.418 1.145 2.358 2.552 2.358h5.618a3.698 3.698 0 0 0 1.854-6.655 3.67 3.67 0 0 0 1.491-3.042c0-1.819-1.273-3.406-3.06-3.637h-3.85a2.15 2.15 0 0 0-2.182 2.121c0 1.188.837 2.122 2.018 2.122h3.376c.364 0 .667-.237.667-.606 0-.425-.303-.606-.667-.606H6.442c-.442 0-.806-.461-.806-.91 0-.448.522-.909.97-.909h3.879c1.121.176 1.818 1.291 1.818 2.425 0 1.236-1.079 2.266-2.242 2.424H6.564a2.15 2.15 0 0 0-1.979 1.33c-.107.26-.162.54-.16.821a2.097 2.097 0 0 0 2.139 2.091h3.254c.364 0 .667-.242.667-.606 0-.375-.303-.606-.667-.606H6.442c-.442 0-.806-.46-.806-.909 0-.448.364-.909.806-.909 1.091 0 2.564.012 3.661 0h.224c1.121.176 1.976 1.29 1.976 2.424 0 1.237-1.079 2.267-2.242 2.425H4.412A1.22 1.22 0 0 1 3.2 16.23V6zM15.333 12a.606.606 0 1 1-1.21 0 .606.606 0 0 1 1.21 0"/>
</svg>
